svgs/burger_king.svg

<svg width="24" height="24" viewBox="0 0 24 24" fill="none" xmlns="http://www.w3.org/2000/svg">
<path d="M20.5157 12.9656C20.7194 13.117 20.8474 13.338 20.8474 13.6229C20.8474 14.0069 20.533 14.3851 20.0679 14.3851C19.6664 14.3851 19.5733 14.0941 18.9975 14.0941C18.5262 14.0941 17.9154 14.4315 17.9154 15.3564C17.9154 16.1882 18.3635 16.6362 19.0207 16.6362C19.2185 16.6362 19.4047 16.5374 19.4047 16.386C19.4047 16.2641 19.294 16.2174 19.1371 16.2174C18.8171 16.2174 18.3867 15.9904 18.3867 15.5135C18.3867 14.99 18.7822 14.7515 19.294 14.7515H19.5793C20.5622 14.7515 21.0509 15.2924 21.0509 16.072C21.0509 17.3053 20.1842 18.1488 18.8171 18.1488C17.514 18.1488 16.1936 17.2587 16.1936 15.3564C16.1936 13.367 17.514 12.5117 18.8696 12.5117C19.6256 12.5118 20.161 12.7038 20.5157 12.9656Z" fill="#D62300"/>
<path d="M12.7671 15.8859C12.7671 15.7813 12.8019 15.7345 12.8659 15.7345C12.9125 15.7345 12.9474 15.7636 12.988 15.8451L13.7967 17.4158C14.105 18.0149 14.4367 18.1545 14.7916 18.1545C15.4024 18.1545 15.7396 17.695 15.7396 17.1192V13.5242C15.7396 12.9597 15.414 12.5118 14.8147 12.5118C14.2155 12.5118 13.8897 12.9597 13.8897 13.5242V14.7807C13.8897 14.8853 13.855 14.9318 13.7907 14.9318C13.7443 14.9318 13.7095 14.9027 13.6688 14.8212L12.8602 13.2506C12.5518 12.6515 12.232 12.5118 11.8653 12.5118C11.2547 12.5118 10.9172 12.9712 10.9172 13.5474V17.1424C10.9172 17.7066 11.2429 18.1545 11.8422 18.1545C12.4414 18.1545 12.7671 17.7067 12.7671 17.1424V15.8859Z" fill="#D62300"/>
<path d="M4.83804 17.1249V16.2987C4.83804 16.2291 4.86711 16.1768 4.93702 16.1768C5.0301 16.1768 5.05328 16.27 5.07649 16.3163C5.21042 16.6364 5.59993 17.3168 5.96072 17.7184C6.2052 17.9859 6.50763 18.1546 6.82765 18.1546C7.36864 18.1546 7.82229 17.6835 7.82229 17.1773C7.82229 16.8632 7.68866 16.6305 7.43255 16.3513C7.10668 15.9964 6.72294 15.531 6.5832 15.3158C6.53085 15.2344 6.52522 15.1819 6.52522 15.1588C6.52522 15.0946 6.56003 15.0482 6.62986 14.9843C6.79281 14.8329 7.19406 14.4549 7.41534 14.1117C7.58395 13.8499 7.65363 13.6114 7.65363 13.4136C7.65363 12.9074 7.19406 12.5119 6.6938 12.5119C6.37386 12.5119 6.07135 12.6921 5.86759 13.0237C5.59431 13.4659 5.26862 13.9778 5.05917 14.1815C5.00689 14.2339 4.97756 14.2455 4.93702 14.2455C4.86707 14.2455 4.83804 14.1987 4.83804 14.1232V13.5415C4.83804 12.9714 4.50074 12.5119 3.88991 12.5119C3.27335 12.5119 2.94175 12.9715 2.94175 13.5415V17.125C2.94175 17.6951 3.27335 18.1546 3.88991 18.1546C4.50077 18.1546 4.83804 17.6951 4.83804 17.1249Z" fill="#D62300"/>
<path d="M3.41857 18.7422C3.08126 18.7422 2.93001 18.9052 2.93001 19.19C2.93001 19.6904 3.38965 20.3887 4.29709 20.9005C5.80973 21.7555 8.40397 22 11.9933 22C15.5827 22 18.1773 21.7555 19.6896 20.9005C20.5973 20.3887 21.0569 19.6904 21.0569 19.19C21.0569 18.9052 20.9057 18.7422 20.5681 18.7422H3.41857Z" fill="#FF8732"/>
<path d="M20.5681 7.63691C20.9056 7.63691 21.0568 7.46237 21.0568 7.14832C21.0568 5.28682 18.2005 2 11.9933 2C5.72816 2 2.92993 5.28678 2.92993 7.14832C2.92993 7.46237 3.08133 7.63691 3.41857 7.63691H20.5681Z" fill="#FF8732"/>
<path d="M7.38593 12.1744C8.32844 12.1744 8.82889 11.6102 8.82889 10.9004V8.94017C8.82889 8.59097 8.6252 8.31168 8.25287 8.31168C7.88049 8.31168 7.67704 8.59097 7.67704 8.94017V10.8364C7.67704 10.9761 7.59558 11.1389 7.38593 11.1389C7.17655 11.1389 7.10672 10.9761 7.10672 10.8364V8.94017C7.10672 8.59097 6.89733 8.31168 6.52496 8.31168C6.15289 8.31168 5.9492 8.59097 5.9492 8.94017V10.9004C5.9492 11.6102 6.44373 12.1744 7.38593 12.1744Z" fill="#D62300"/>
<path d="M17.2581 10.691C17.5373 10.691 17.7586 10.5223 17.7586 10.2256C17.7586 9.9291 17.5374 9.76041 17.2581 9.76041H16.8569C16.7578 9.76041 16.7111 9.70209 16.7111 9.62652V9.53348C16.7111 9.45768 16.7578 9.39966 16.8569 9.39966H17.3802C17.7059 9.39966 17.9619 9.20757 17.9619 8.85864C17.9619 8.5154 17.7059 8.32331 17.3802 8.32331H16.2808C15.8212 8.32331 15.5999 8.59097 15.5999 8.95176V11.5172C15.5999 11.8776 15.8212 12.1453 16.2808 12.1453H17.3802C17.7059 12.1453 17.9619 11.9535 17.9619 11.6043C17.9619 11.2611 17.7059 11.0692 17.3802 11.0692H16.8569C16.7578 11.0692 16.7111 11.011 16.7111 10.9354V10.8248C16.7111 10.7492 16.7578 10.691 16.8569 10.691L17.2581 10.691Z" fill="#D62300"/>
<path d="M14.9718 8.60263C15.1057 8.70727 15.1928 8.85864 15.1928 9.05643C15.1928 9.32409 14.9834 9.57987 14.6751 9.57987C14.4076 9.57987 14.3437 9.38204 13.9595 9.38204C13.6454 9.38204 13.2382 9.61471 13.2382 10.2547C13.2382 10.8308 13.535 11.1389 13.9714 11.1389C14.1108 11.1389 14.2331 11.0692 14.2331 10.9644C14.2331 10.8832 14.1632 10.848 14.0526 10.848C13.8376 10.848 13.5524 10.691 13.5524 10.3653C13.5524 9.99856 13.8199 9.83591 14.1633 9.83591H14.3494C15.001 9.83591 15.3267 10.2082 15.3267 10.7492C15.3267 11.5987 14.7509 12.1803 13.8376 12.1803C12.9706 12.1803 12.0925 11.5695 12.0925 10.2547C12.0925 8.88181 12.9707 8.28854 13.8725 8.28854C14.3845 8.28858 14.7277 8.42243 14.9718 8.60263Z" fill="#D62300"/>
<path d="M10.2424 13.6113C10.2424 13.0004 9.88761 12.5118 9.23595 12.5118C8.5844 12.5118 8.2295 13.0004 8.2295 13.6113V17.0553C8.2295 17.6659 8.5844 18.1547 9.23595 18.1547C9.88761 18.1547 10.2424 17.6659 10.2424 17.0553V13.6113Z" fill="#D62300"/>
<path d="M5.29754 10.1676C5.26866 10.1441 5.23952 10.1209 5.23952 10.0976C5.23952 10.0685 5.25704 10.0569 5.28603 10.0221C5.39655 9.89389 5.50696 9.6905 5.50696 9.3937C5.50696 8.69572 5.03591 8.32342 4.30272 8.32342H3.61074C3.15117 8.32342 2.92993 8.59108 2.92993 8.95176V11.5172C2.92993 11.8778 3.15117 12.1453 3.61074 12.1453H4.4309C5.20453 12.1453 5.6758 11.6276 5.6758 10.9819C5.6758 10.4641 5.36752 10.2256 5.29754 10.1676ZM3.95386 9.32409C3.95386 9.2483 4.00025 9.19028 4.0993 9.19028H4.17487C4.4252 9.19028 4.50077 9.36452 4.50077 9.51596C4.50077 9.65536 4.4252 9.85319 4.17487 9.85319H4.0993C4.00029 9.85319 3.95386 9.79518 3.95386 9.71968V9.32409ZM4.20401 11.2727H4.0993C4.00029 11.2727 3.95386 11.2147 3.95386 11.1389V10.6853C3.95386 10.6095 4.00025 10.5515 4.0993 10.5515H4.20401C4.48326 10.5515 4.56483 10.7377 4.56483 10.9062C4.56479 11.0575 4.48326 11.2727 4.20401 11.2727Z" fill="#D62300"/>
<path d="M11.8479 11.1624C11.6793 10.9411 11.5279 10.7493 11.4524 10.5455C11.4348 10.4992 11.4466 10.4584 11.4991 10.4177C11.6793 10.278 11.8886 9.96979 11.8886 9.48112C11.8886 8.74211 11.2781 8.32331 10.539 8.32331H9.88176C9.42193 8.32331 9.20103 8.59097 9.20103 8.95168V11.5463C9.20103 11.8951 9.40472 12.1744 9.77705 12.1744C10.1494 12.1744 10.3528 11.8952 10.3528 11.5463V10.9295C10.3528 10.8539 10.3879 10.8188 10.4459 10.8188C10.5158 10.8188 10.5391 10.8596 10.5506 10.9295C10.603 11.2263 10.7427 11.6274 10.8997 11.8312C11.0975 12.0929 11.2837 12.1744 11.4698 12.1744C11.7724 12.1744 12.0341 11.936 12.0341 11.6391C12.0341 11.4413 11.9526 11.296 11.8479 11.1624ZM10.5158 9.95228H10.4343C10.3356 9.95228 10.2889 9.894 10.2889 9.81843V9.4228C10.2889 9.34723 10.3356 9.28914 10.4343 9.28914H10.5158C10.7601 9.28914 10.8356 9.46361 10.8356 9.61475C10.8356 9.76041 10.7601 9.95228 10.5158 9.95228Z" fill="#D62300"/>
<path d="M20.8707 11.1624C20.6729 10.912 20.5507 10.7493 20.4751 10.5455C20.4575 10.4992 20.4694 10.4584 20.5217 10.4177C20.7019 10.278 20.9113 9.96979 20.9113 9.48112C20.9113 8.74211 20.3005 8.32331 19.5617 8.32331H18.9045C18.4447 8.32331 18.2237 8.59097 18.2237 8.95168V11.5463C18.2237 11.8951 18.4274 12.1744 18.7998 12.1744C19.1722 12.1744 19.3755 11.8952 19.3755 11.5463V10.9295C19.3755 10.8539 19.4107 10.8188 19.4686 10.8188C19.5386 10.8188 19.5617 10.8596 19.5733 10.9295C19.6256 11.2263 19.7654 11.6274 19.9225 11.8312C20.1203 12.0929 20.3065 12.1744 20.4925 12.1744C20.7951 12.1744 21.0569 11.936 21.0569 11.6391C21.0568 11.4413 20.9752 11.296 20.8707 11.1624ZM19.5386 9.95228H19.457C19.3584 9.95228 19.3116 9.894 19.3116 9.81843V9.4228C19.3116 9.34723 19.3583 9.28914 19.457 9.28914H19.5386C19.7827 9.28914 19.8583 9.46361 19.8583 9.61475C19.8583 9.76041 19.7827 9.95228 19.5386 9.95228Z" fill="#D62300"/>
</svg>

<svg xmlns="http://www.w3.org/2000/svg" viewBox="0 0 24 24"><path d="M7.386 12.174c.942 0 1.443-.564 1.443-1.274V8.94c0-.349-.204-.628-.576-.628-.373 0-.576.279-.576.628v1.896c0 .14-.081.303-.291.303s-.28-.163-.28-.303V8.94c0-.349-.209-.628-.581-.628s-.576.279-.576.628v1.96c0 .71.495 1.274 1.437 1.274m9.872-1.483c.28 0 .5-.169.5-.465 0-.297-.22-.466-.5-.466h-.401c-.1 0-.146-.058-.146-.133v-.094c0-.075.047-.133.146-.133h.523c.326 0 .582-.192.582-.541 0-.344-.256-.536-.582-.536h-1.1c-.459 0-.68.268-.68.629v2.565c0 .36.221.628.68.628h1.1c.326 0 .582-.191.582-.54 0-.344-.256-.536-.582-.536h-.523c-.1 0-.146-.058-.146-.134v-.11c0-.076.047-.134.146-.134h.401m-2.286-2.088a.557.557 0 0 1 .22.453.52.52 0 0 1-.517.524c-.267 0-.331-.198-.716-.198-.314 0-.72.233-.72.873 0 .576.296.884.732.884.14 0 .262-.07.262-.175 0-.08-.07-.116-.18-.116-.215 0-.5-.157-.5-.483 0-.366.267-.53.61-.53h.186c.652 0 .978.373.978.914 0 .85-.576 1.431-1.49 1.431-.866 0-1.745-.61-1.745-1.925 0-1.373.879-1.966 1.78-1.966.512 0 .856.133 1.1.314m-4.73 5.008c0-.61-.354-1.1-1.006-1.1s-1.007.49-1.007 1.1v3.444c0 .61.355 1.1 1.007 1.1s1.006-.49 1.006-1.1v-3.444m-4.944-3.443c-.03-.024-.058-.047-.058-.07 0-.03.017-.041.046-.076a.937.937 0 0 0 .221-.628c0-.698-.471-1.07-1.204-1.07H3.61c-.46 0-.681.267-.681.628v2.565c0 .36.221.628.68.628h.82c.775 0 1.246-.517 1.246-1.163 0-.518-.308-.756-.378-.814m-1.344-.844c0-.076.046-.134.145-.134h.076c.25 0 .326.175.326.326 0 .14-.076.337-.326.337h-.076c-.099 0-.145-.058-.145-.133v-.396m.25 1.949h-.105c-.099 0-.145-.058-.145-.134v-.454c0-.075.046-.133.145-.133h.105c.28 0 .36.186.36.354 0 .151-.08.367-.36.367m7.645-.111c-.169-.22-.32-.413-.396-.617-.017-.046-.005-.087.047-.127.18-.14.39-.448.39-.937 0-.739-.61-1.158-1.35-1.158h-.657c-.46 0-.681.268-.681.629v2.594c0 .35.204.628.576.628s.576-.279.576-.628v-.616c0-.076.035-.111.093-.111.07 0 .093.04.105.11.052.297.192.698.349.902.197.262.384.343.57.343.302 0 .564-.238.564-.535 0-.198-.081-.343-.186-.477m-1.332-1.21h-.082c-.098 0-.145-.058-.145-.134v-.395c0-.076.047-.134.145-.134h.082c.244 0 .32.175.32.326 0 .145-.076.337-.32.337m10.354 1.21c-.197-.25-.32-.413-.395-.617-.018-.046-.006-.087.047-.127.18-.14.39-.448.39-.937 0-.739-.611-1.158-1.35-1.158h-.658c-.46 0-.68.268-.68.629v2.594c0 .35.203.628.576.628.372 0 .575-.279.575-.628v-.616c0-.076.036-.111.094-.111.07 0 .093.04.104.11.053.297.192.698.35.902.197.262.384.343.57.343.302 0 .564-.238.564-.535 0-.198-.082-.343-.186-.477m-1.331-1.21h-.082c-.099 0-.145-.058-.145-.134v-.395c0-.076.046-.134.145-.134h.082c.244 0 .32.175.32.326 0 .145-.076.337-.32.337m-16.121 8.79c-.338 0-.489.163-.489.448 0 .5.46 1.199 1.367 1.71 1.513.856 4.107 1.1 7.696 1.1 3.59 0 6.184-.244 7.697-1.1.907-.511 1.367-1.21 1.367-1.71 0-.285-.151-.448-.489-.448H3.418zM20.568 7.637c.338 0 .489-.175.489-.489C21.057 5.287 18.2 2 11.993 2 5.728 2 2.93 5.287 2.93 7.148c0 .314.151.489.489.489h17.15m-.053 5.329a.792.792 0 0 1 .331.657.772.772 0 0 1-.78.762c-.4 0-.494-.29-1.07-.29-.47 0-1.082.336-1.082 1.261 0 .832.448 1.28 1.106 1.28.197 0 .384-.099.384-.25 0-.122-.111-.169-.268-.169-.32 0-.75-.227-.75-.703 0-.524.395-.762.907-.762h.285c.983 0 1.472.54 1.472 1.32 0 1.233-.867 2.077-2.234 2.077-1.303 0-2.623-.89-2.623-2.793 0-1.989 1.32-2.844 2.676-2.844.756 0 1.291.192 1.646.454m-7.749 2.92c0-.105.035-.151.099-.151.046 0 .081.029.122.11l.809 1.57c.308.6.64.74.995.74.61 0 .948-.46.948-1.036v-3.595c0-.564-.326-1.012-.925-1.012-.6 0-.925.448-.925 1.012v1.257c0 .104-.035.15-.1.15-.046 0-.08-.028-.121-.11l-.809-1.57c-.308-.6-.628-.74-.995-.74-.61 0-.948.46-.948 1.036v3.595c0 .565.326 1.012.925 1.012.6 0 .925-.447.925-1.012zm-7.929 1.239v-.826c0-.07.03-.122.099-.122.093 0 .116.093.14.14.133.32.523 1 .884 1.401.244.268.547.437.867.437.54 0 .994-.472.994-.978 0-.314-.133-.546-.39-.826-.325-.355-.71-.82-.849-1.035a.295.295 0 0 1-.058-.157c0-.064.035-.11.105-.175.163-.151.564-.53.785-.872.169-.262.239-.5.239-.698 0-.507-.46-.902-.96-.902-.32 0-.623.18-.826.512-.274.442-.6.954-.809 1.158-.052.052-.081.063-.122.063-.07 0-.099-.046-.099-.122v-.582c0-.57-.337-1.03-.948-1.03-.617 0-.948.46-.948 1.03v3.584c0 .57.331 1.03.948 1.03.61 0 .948-.46.948-1.03"/></svg>
